X: 18983
T: Inishmurray, The
R: hornpipe
M: 4/4
K: Dmajor
(3dcB|AFDF Adcd|BGDG BdcB|Acef gecd|(3efe (3dcB A2(3dcB|
AFDF Adcd|BGDG BdcB|Acef gecd|eddc d3(3dcB
AFDF Adcd|BGDG BdcB|Acef gecd|edfd AGFG|
AFDF Adcd|BGDG BdcB|Acef gecd|eddc d3|
ag|f2fg fedc|B2Bc B2 gf|e2ef edcB|A2 AB A2 ag|
fdfg fedc|BABc B2|edce afge|cd (3efe d2 cd:|

